!!!COM: Mozart, Wolfgang Amadeus
!!!OTL: String Quartet No. 17 in B-flat Major ("Hunt")
!!!OMD: Adagio
!!!OMV: 3
!!!SCT1: K<sup>1</sup> 458
!!!SCA: Chronologisch-thematisches Verzeichnis sämtlicher Tonwerke Wolfgang Amade Mozarts (L. von Köchel; 1862, 2/1905, 3/1937, 1947)
!!!SCT2: K<sup>6</sup> 458
!!!YOR: Breitkopf & Härtel Edition
!!!ENC: Frances Bennion
!!!CDT: 1756/1/27/-1791/12/5/
!!!OCY: Österreich
!!!YEC: Copyright (c) 1994, 2000 Center for Computer Assisted Research in the Humanities
!!!YEM: Rights to all derivative editions reserved.
!!!YEM: Refer to licensing agreement for further details.
!!!YEN: United States of America
**kern	**kern	**kern	**kern
*k[b-e-a-]	*k[b-e-a-]	*k[b-e-a-]	*k[b-e-a-]
*E-:	*E-:	*E-:	*E-:
*clefC	*clefF	*clefG	*clefG
*M4/4	*M4/4	*M4/4	*M4/4
4E-	[4B-	4e-	4g
8D	8B-]	8f	8a-
16.r	8r	16.r	16.r
32E-	.	32e-	32g
8BB-	8A-	8d	8f
8EE-	8G	8e-	8e-
4r	4r	4r	8r
.	.	.	8G
=2	=2	=2	=2
2r	2r	2r	8B-
.	.	.	8e-
.	.	.	8g
.	.	.	8b-
4C	4E-	4G	4ee-
4D	4F	4B-	4b-
=3	=3	=3	=3
8E-	8B-	16.e-	16.g
.	.	32f	32a-
8EE-	8e-	8g	8b-
4.r	4.r	4.r	4r
.	.	.	4.cc
8BB-	8G	8e	.
4AA-	4A-	4f	.
.	.	.	8cc-
=4	=4	=4	=4
8r	8r	8r	[6..b-
8AA-	8F	8d	.
4GG	8G	8e-	.
.	.	.	48b-]
.	.	.	16a
.	8E-	8B-	16a-
.	.	.	16g
8AA-	8C	8c	8f
8r	8r	8r	4a-
8BB-	8F	8A-	.
8r	8r	8r	8d
=5	=5	=5	=5
4EE-	4E-	4G	8e-
.	.	.	16r
.	.	.	16B-
4r	4r	4r	16e-
.	.	.	16g
.	.	.	16b-
.	.	.	16ee-
4e-	[4b-	4ee-	4gg
8d	8b-]	8ff	8aa-
16.r	8r	16.r	16.r
32e-	.	32ee-	32gg
=6	=6	=6	=6
8B-	8a-	8dd	8ff
8E-	8g	8ee-	8ee-
2.r	2.r	2.r	8r
.	.	.	8e-
.	.	.	8g
.	.	.	8b
.	.	.	8cc
.	.	.	8ee-
=7	=7	=7	=7
8C	16r	16r	[6..gg
.	16c	16e-	.
8r	16c	16e-	.
.	16c	16e-	.
8C	16r	16r	.
.	.	.	48gg]
.	16B	16d	32ff
.	.	.	32ee
8r	16B	16d	32ff
.	.	.	32gg
.	16B	16d	32aa-
.	.	.	32gg
8C	16r	16r	8gg
.	16c	16e-	.
8r	16c	16g	8.ee-
.	16c	16g	.
8F	16r	16r	.
.	16A-	16a-	16dd
8r	16A-	16d	[8ff
.	16A-	16d	.
=8	=8	=8	=8
8G	16r	16r	16ff]
.	16G	16e-	16cc
8r	16c	16g	8.ee-
.	16c	16g	.
8GG	16r	16r	.
.	16d	16f	16b
8r	16B	16f	[12..dd
.	16B	16f	.
4C	16r	16r	.
.	.	.	96dd]
.	.	.	32ff
.	16B	16f	32ee-
.	.	.	32dd
.	16c	16e-	[12..cc
.	16B-	8e-	.
4F	16A	.	.
.	.	.	96cc]
.	.	.	32b-
.	16c	16e-	32a
.	.	.	32b-
.	16A	16c	32cc
.	.	.	32dd
.	16F	16A	32ee-
.	.	.	32cc
=9	=9	=9	=9
8BB-	16r	16r	[4ff
.	16B-	16d	.
8r	16B-	16d	.
.	16B-	16d	.
8BB-	16r	16r	32ff]
.	.	.	32ee-
.	16A	16e-	32dd
.	.	.	32cc
8r	16A	16c	32dd
.	.	.	32ee-
.	16c	16a	32ff
.	.	.	32gg
8BB-	16r	16r	16.ff
.	16d	16b-	.
.	.	.	32dd
8r	16d	16b-	8ff
.	16d	16b-	.
4E-	16r	16r	24r
.	.	.	24cc
.	16e-	16g	.
.	.	.	24dd
.	16c	16g	24ee-
.	.	.	24ff
.	16c	16e-	.
.	.	.	24gg
=10	=10	=10	=10
4F	16r	16r	24r
.	.	.	24b-
.	16B-	16d	.
.	.	.	24cc
.	16B-	16f	24dd
.	.	.	24ee-
.	16d	16f	.
.	.	.	24ff
4F#	16r	16r	24r
.	.	.	24ee-
.	16A	16c	.
.	.	.	24dd
.	16A	16e-	24cc
.	.	.	24b-
.	16c	16e-	.
.	.	.	24a
4G	16r	16r	16.b-
.	16e	16d-	.
.	.	.	32ddd-
.	16e	16B-	4ddd-
.	16e	16B-	.
4F	16r	16r	.
.	16f	16B-	.
.	16f	16d-	16ccc
.	16f	16d-	16bb-
=11	=11	=11	=11
8E	16r	16r	[12..bb-
.	16g	16d-	.
8F	16f	16d-	.
.	.	.	96bb-]
.	.	.	32aa-
.	16f	16d-	32gg-
.	.	.	32ff
4G-	16r	16r	16ee
.	16B-	16dd-	16ee
.	16A	16cc	16ee
.	16B-	16b-	16ee
8.F	4c	4a	[2ff
32G-	.	.	.
32F	.	.	.
32E-	4d-	4b-	.
32D-	.	.	.
32C	.	.	.
32BB-	.	.	.
32AA	.	.	.
32BB-	.	.	.
32D-	.	.	.
32BB-	.	.	.
=12	=12	=12	=12
4AA	4cc	4ee-	8.ff]
.	.	.	32ee
.	.	.	32ff
4BB-	4b-	4dd-	32gg-
.	.	.	32ff
.	.	.	32ee-
.	.	.	32dd-
.	.	.	32cc
.	.	.	32b-
.	.	.	32dd-
.	.	.	32b-
8.F	4A	4e-	2f
32E	.	.	.
32F	.	.	.
32G-	4B-	4d-	.
32F	.	.	.
32E-	.	.	.
32D-	.	.	.
32C	.	.	.
32BB-	.	.	.
32D-	.	.	.
32BB-	.	.	.
=13	=13	=13	=13
4AA	4E-	4c	8.g-
.	.	.	32f
.	.	.	32e-
4GG	4E	4B-	32e-
.	.	.	32d-
.	.	.	32c
.	.	.	32B-
.	.	.	32A
.	.	.	32B-
.	.	.	32A
.	.	.	32B-
8FF	16F	8A	8c
.	16f	.	.
4.r	8.f	16r	16r
.	.	16B-	16d-
.	.	8A	8c
.	16f	.	.
.	[8f	16r	16r
.	.	16b-	16dd-
=14	=14	=14	=14
4r	16f]	8a	8cc
.	16f	.	.
.	4f	16r	16r
.	.	16b	16dd
16r	.	8cc	8ee-
16F	.	.	.
16G	16e	4.r	3..r
16A	16e-	.	.
16B-	16d	.	.
16B-	16d	.	.
16B-	16d	.	.
16B-	16d	.	.
16B-	16d	16f	.
16B-	16d	16f	.
16B-	16d	16f	.
16B-	16d	16f	.
.	.	.	24r
=15	=15	=15	=15
16B-	16d-	16f	4.gg
16B-	16d-	16f	.
16B-	16d-	16f	.
16B-	16d-	16f	.
16B-	16c	16e	.
16B-	16c	16e	.
16B-	16c	16e	32ff
.	.	.	32ee
16B-	16c	16e	32dd
.	.	.	32cc
16A	16c	16f	8cc
16A	16c	16f	.
16A	16c	16f	8ff
16A	16c	16f	.
16A-	16c	16f	4r
16A-	16c	16f	.
16A-	16c	16e-	.
16A-	16c	16e-	.
=16	=16	=16	=16
16A-	16c-	16e-	4.ff
16A-	16c-	16e-	.
16A-	16c-	16e-	.
16A-	16c-	16e-	.
16A-	16B-	16d	.
16A-	16B-	16d	.
16A-	16B-	16d	32ee-
.	.	.	32dd
16A-	16B-	16d	32cc
.	.	.	32b-
8G	8B-	8e-	8b-
4.r	8r	8r	16ee-
.	.	.	16r
.	16.A	16.c	16.ee-
.	32B-	32d	32dd
.	16c	16e-	16cc
.	16r	16r	32r
.	.	.	32cc
=17	=17	=17	=17
8BB-	16.B-	16.d	16.ff
.	32c	32e-	32ee-
8r	16d	16f	16dd
.	16r	16r	32r
.	.	.	32dd
16E-	16c	16e-	16gg
16r	16r	16r	16r
16F	16c	16e-	16a
16r	16r	16r	16r
4BB-	16B-	16d	8b-
.	16b-	16dd	.
.	16b-	16dd	8r
.	16b-	16dd	.
4r	16b-	16dd	16ff
.	16b-	16dd	16ff
.	16b-	16dd	16ff
.	16b-	16dd	16ff
=18	=18	=18	=18
4.g	16b-	16dd-	16ff
.	16b-	16dd-	16ff
.	16b-	16dd-	16ff
.	16b-	16dd-	16ff
.	16b-	16cc	16ee
.	16b-	16cc	16ee
32f	16b-	16cc	16ee
32e	.	.	.
32d	16b-	16cc	16ee
32c	.	.	.
8c	16b-	16cc	16ff
.	16b-	16cc	16ff
8f	16a	16cc	16ff
.	16a	16cc	16ff
4r	16a-	16cc	16ff
.	16a-	16cc	16ff
.	16a-	16cc	16ee-
.	16a-	16cc	16ee-
=19	=19	=19	=19
4.f	16a-	16cc-	16ee-
.	16a-	16cc-	16ee-
.	16a-	16cc-	16ee-
.	16a-	16cc-	16ee-
.	16a-	16b-	16dd
.	16a-	16b-	16dd
32e-	16a-	16b-	16dd
32d	.	.	.
32c	16a-	16b-	16dd
32B-	.	.	.
8B-	16a-	16b-	8ee-
.	16a-	16b-	.
16e-	16g	16b-	8r
16r	16g	16b-	.
8F	16.c	16.e-	32cc
.	.	.	32dd
.	.	.	32ee-
.	32B-	32d	32ee
8r	16A	16c	16ff
.	32r	32r	16r
.	32A	32c	.
=20	=20	=20	=20
8BB-	16.d	16.f	32ff
.	.	.	32gg
.	.	.	32aa-
.	32c	32e-	32aa
8r	16B-	16d	16bb-
.	32r	32r	2r
.	32B-	32d	.
16E-	16B-	16g	.
16r	16r	16r	.
16F	16A	16e-	.
16r	16r	16r	.
8G	8B-	8d	.
8r	4r	8r	.
.	.	.	16r
32C	.	16.cc	16.ee-
32D	.	.	.
32E-	.	.	.
32E	.	32b-	32dd
16F	32f	16a	16cc
.	32e	.	.
16r	32f	32r	32r
.	32e-	32a	32cc
=21	=21	=21	=21
32D	16d	16.dd	16.ff
32E-	.	.	.
32F	16r	.	.
32F#	.	32cc	32ee-
16G	32g	16b-	16dd
.	32f#	.	.
16r	32g	32r	32r
.	32f	32b-	32dd
16E-	16e-	16b-	16gg
16r	16r	16r	16r
16F	16c	16e-	16a
16r	16.r	16.r	16r
16B-	.	.	4b-
.	32B-	32d	.
16B-	32d	32f	.
.	32B-	32d	.
16B-	32d	32f	.
.	32B-	32d	.
16B-	32d	32f	.
.	32B-	32d	.
16G	32r	32r	4b
.	32G	32d	.
16G	32d	32f	.
.	32G	32d	.
16G	32d	32f	.
.	32G	32d	.
16G	32d	32f	.
.	32G	32d	.
=22	=22	=22	=22
16E-	32r	32r	16cc
.	32G	32e-	.
16E-	32c	32g	16ee-
.	32G	32e-	.
16E-	32c	32g	8.gg
.	32G	32e-	.
16E-	32c	32g	.
.	32B-	32e-	.
16F	32r	32r	.
.	32A	32c	.
16F	32c	32e-	32ff
.	32A	32c	32ee-
16F	32c	32e-	32dd
.	32A	32c	32cc
16F	32c	32e-	32b-
.	32F	32c	32a
16BB-	32r	32r	4b-
.	32F	32d	.
16BB-	32d	32f	.
.	32B-	32d	.
16BB-	32d	32f	.
.	32B-	32d	.
16BB-	32d	32f	.
.	32B-	32d	.
16GG	32r	32r	4b
.	32G	32d	.
16GG	32d	32f	.
.	32G	32d	.
16GG	32d	32f	.
.	32G	32d	.
16GG	32d	32f	.
.	32G	32d	.
=23	=23	=23	=23
16EE-	32r	32r	24cc
.	32G	32e-	.
.	.	.	24ee-
16EE-	32c	32g	.
.	.	.	24gg
.	32G	32e-	.
16EE-	32c	32g	8.gg
.	32G	32e-	.
16EE-	32c	32g	.
.	32G	32e-	.
16FF	32r	32r	.
.	32A	32c	.
16FF	32c	32e-	32ff
.	32A	32c	32ee-
16FF	32c	32e-	32dd
.	32A	32c	32cc
16FF	32c	32e-	32b-
.	32F	32c	32a
16BB-	32F	32d	16b-
.	32D	32f	.
16r	32F	32d	16r
.	32D	32B-	.
16FF	16E-	16A	32cc
.	.	.	32ee-
16r	16r	16r	32dd
.	.	.	32cc
16BB-	32D	32B-	16b-
.	32D	32f	.
16r	32F	32d	16r
.	32D	32B-	.
16FF	16E-	16A	32cc
.	.	.	32ee-
16r	16r	16r	32dd
.	.	.	32cc
=24	=24	=24	=24
8BB-	32D	32B-	16b-
.	32C	32A	.
.	32E-	32c	16r
.	32D	32B-	.
8r	16F	16d	32dd
.	.	.	32cc
.	16r	16r	32ee-
.	.	.	32dd
8BB-	32B-	32d	16ff
.	32A	32c	.
.	32c	32e-	16r
.	32B-	32d	.
8r	16d	16f	32ff
.	.	.	32ee
.	16r	16r	32gg
.	.	.	32ff
2BB-	4d	4B-	32aa-
.	.	.	32gg
.	.	.	32bb-
.	.	.	32aa-
.	.	.	32gg
.	.	.	32ff
.	.	.	32ee-
.	.	.	32dd
.	8e-	8c	32cc
.	.	.	32b-
.	.	.	32a
.	.	.	32b-
.	8f	8d	32a
.	.	.	32b-
.	.	.	32cc
.	.	.	32a-
=25	=25	=25	=25
4E-	[4B-	4e-	4g
8D	8B-]	8f	8a-
16.r	8r	16.r	16.r
32E-	.	32e-	32g
8BB-	8A-	8d	8f
8EE-	8G	8e-	8e-
4r	4r	4r	8r
.	.	.	8G
=26	=26	=26	=26
2r	2r	2r	8B-
.	.	.	8e-
.	.	.	8g
.	.	.	8b-
4C	4E-	4G	4ee-
4D	4F	4B-	4b-
=27	=27	=27	=27
8E-	8B-	16.e-	16.g
.	.	32f	32a-
8EE-	8e-	8g	8b-
8r	2r	2r	8r
8GG	.	.	8e-
8BB-	.	.	8g
8E-	.	.	8b-
8G	8r	8r	8ee-
8B-	8b-	8dd-	8gg
=28	=28	=28	=28
8d-	8g	8b-	16.bb-
.	.	.	32ccc
8D-	8e	8g	8ddd-
4r	8d-	8e	8r
.	8B-	8d-	8e
8C	8G	16.ee	8g
.	.	32ff	.
8CC	8E	8gg	8b-
4r	4r	4r	8ee
.	.	.	8gg
=29	=29	=29	=29
8F	16r	16r	[6..ccc
.	16f	16a-	.
8r	16f	16a-	.
.	16f	16a-	.
8F	16r	16r	.
.	.	.	48ccc]
.	16e	16g	32bb-
.	.	.	32aa
8r	16e	16g	32bb-
.	.	.	32ccc
.	16e	16g	32ddd-
.	.	.	32ccc
8F	16r	16r	8ccc
.	16f	16a-	.
8r	16f	16cc	8.aa-
.	16f	16cc	.
8BB-	16r	16r	.
.	16d-	16b-	16gg
8r	16d-	16g	[8bb-
.	16d-	16g	.
=30	=30	=30	=30
8C	16r	16r	16bb-]
.	16c	16a-	16ff
8r	16c	16f	8.aa-
.	16c	16f	.
8C	16r	16r	.
.	16B-	16g	16ee
8r	16B-	16e	[12..gg
.	16B-	16e	.
4FF	16r	16r	.
.	.	.	96gg]
.	.	.	32bb-
.	16B-	16e	32aa-
.	.	.	32gg
.	16A-	16f	[12..ff
.	8A-	16e-	.
4BB-	.	16d	.
.	.	.	96ff]
.	.	.	32ee-
.	16F	16a-	32dd
.	.	.	32ee-
.	16D	16f	32ff
.	.	.	32gg
.	16F	16d	32aa-
.	.	.	32ff
=31	=31	=31	=31
8EE-	16r	16r	[4bb-
.	16G	16e-	.
8r	16G	16e-	.
.	16G	16e-	.
8EE-	16r	16r	32bb-]
.	.	.	32aa-
.	16F	16d	32gg
.	.	.	32ff
8r	16F	16d	32gg
.	.	.	32aa-
.	16F	16d	32bb-
.	.	.	32ccc
8EE-	16r	16r	16.bb-
.	16G	16e-	.
.	.	.	32gg
8r	16G	16e-	8bb-
.	16G	16e-	.
4A-	16r	16r	24r
.	.	.	24ff
.	16a-	16cc	.
.	.	.	24gg
.	16f	16cc	24aa-
.	.	.	24bb-
.	16f	16a-	.
.	.	.	24ccc
=32	=32	=32	=32
4B-	16r	16r	24r
.	.	.	24ee-
.	16e-	16g	.
.	.	.	24ff
.	16e-	16b-	24gg
.	.	.	24aa-
.	16g	16b-	.
.	.	.	24bb-
4B	16r	16r	24r
.	.	.	24aa-
.	16d	16f	.
.	.	.	24gg
.	16d	16a-	24ff
.	.	.	24ee-
.	16f	16a-	.
.	.	.	24dd
4c	16r	16r	16.ff
.	16g-	16a	.
.	.	.	32ee-
.	16g-	16a	8.ee-
.	16g-	16a	.
4B-	16r	16r	.
.	16g-	16b-	16eee-
.	16g-	16b-	16eee-
.	16g-	16b-	16eee-
=33	=33	=33	=33
8A	16r	16r	[12..eee-
.	16g-	16cc	.
8B-	16g-	16b-	.
.	.	.	96eee-]
.	.	.	32ddd-
.	16g-	16b-	32ccc-
.	.	.	32bb-
4c-	16r	16r	16aa
.	16e-	16gg-	16aa
.	16d	16ff	16aa
.	16e-	16ee-	16aa
8.B-	4f	4dd	[2bb-
32c-	.	.	.
32B-	.	.	.
32A-	4g-	4ee-	.
32G-	.	.	.
32F	.	.	.
32E-	.	.	.
32D	.	.	.
32E-	.	.	.
32G-	.	.	.
32E-	.	.	.
=34	=34	=34	=34
4D	4a-	4ff	8.bb-]
.	.	.	32aa
.	.	.	32bb-
4E-	4g-	4ee-	32ccc-
.	.	.	32bb-
.	.	.	32aa-
.	.	.	32gg-
.	.	.	32ff
.	.	.	32ee-
.	.	.	32gg-
.	.	.	32ee-
8.B-	4d	4a-	2b-
32A	.	.	.
32B-	.	.	.
32c-	4e-	4g-	.
32B-	.	.	.
32A-	.	.	.
32G-	.	.	.
32F	.	.	.
32E-	.	.	.
32G-	.	.	.
32E-	.	.	.
=35	=35	=35	=35
4D	4A-	4f	8.cc-
.	.	.	32b-
.	.	.	32a-
4C	8A	4e-	32a-
.	.	.	32g-
.	.	.	32f
.	.	.	32e-
.	8c	.	32d
.	.	.	32e-
.	.	.	32d
.	.	.	32e-
16BB-	8F	8d	8f
16BB-	.	.	.
8BB-	8.r	16r	16r
.	.	16e-	16g-
4r	.	8d	8f
.	16B-	.	.
.	[8B-	16r	16r
.	.	16ee-	16gg-
=36	=36	=36	=36
4r	16B-]	8dd	8ff
.	16b-	.	.
.	4b-	16r	16r
.	.	16ee	16gg
16r	.	8ff	8aa-
16B-	.	.	.
16c	16a	4.r	3..r
16d	16a-	.	.
16e-	16g	.	.
16e-	16g	.	.
16e-	16g	.	.
16e-	16g	.	.
16e-	16g	16b-	.
16e-	16g	16b-	.
16e-	16g	16b-	.
16e-	16g	16b-	.
.	.	.	24r
=37	=37	=37	=37
16e-	16g-	16b-	4.ccc
16e-	16g-	16b-	.
16e-	16g-	16b-	.
16e-	16g-	16b-	.
16e-	16f	16a	.
16e-	16f	16a	.
16e-	16f	16a	32bb-
.	.	.	32aa
16e-	16f	16a	32gg
.	.	.	32ff
16d	16f	16b-	8ff
16d	16f	16b-	.
16d	16f	16b-	8bb-
16d	16f	16b-	.
16d-	16f	16b-	4r
16d-	16f	16b-	.
16d-	16f	16a-	.
16d-	16f	16a-	.
=38	=38	=38	=38
16d-	16f-	16a-	4.bb-
16d-	16f-	16a-	.
16d-	16f-	16a-	.
16d-	16f-	16a-	.
16d-	16e-	16g	.
16d-	16e-	16g	.
16d-	16e-	16g	32aa-
.	.	.	32gg
16d-	16e-	16g	32ff
.	.	.	32ee-
8c	8e-	8a-	8ee-
8r	8r	8r	16aa-
.	.	.	16r
8B-	16.d	16.f	16.aa-
.	32e-	32g	32gg
8r	16f	16a-	16ff
.	16r	16r	32r
.	.	.	32ff
=39	=39	=39	=39
8E-	16.e-	16.g	16.bb-
.	32f	32a-	32aa-
8r	16g	16b-	16gg
.	16r	16r	32r
.	.	.	32gg
16A-	16f	16a-	16ccc
16r	16r	16r	16r
16B-	16f	16a-	16dd
16r	16r	16r	16r
4E-	16e-	16g	8ee-
.	16e-	16g	.
.	16e-	16g	8r
.	16e-	16g	.
4r	16e-	16g	16b-
.	16e-	16g	16b-
.	16e-	16g	16b-
.	16e-	16g	16b-
=40	=40	=40	=40
4.c	16e-	16g-	16b-
.	16e-	16g-	16b-
.	16e-	16g-	16b-
.	16e-	16g-	16b-
.	16e-	16f	16a
.	16e-	16f	16a
32B-	16e-	16f	16a
32A	.	.	.
32G	16e-	16f	16a
32F	.	.	.
8F	16e-	16f	16b-
.	16e-	16f	16b-
8B-	16d	16f	16b-
.	16d	16f	16b-
4r	16d-	16f	16b-
.	16d-	16f	16b-
.	16d-	16f	16a-
.	16d-	16f	16a-
=41	=41	=41	=41
4.B-	16d-	16f-	16a-
.	16d-	16f-	16a-
.	16d-	16f-	16a-
.	16d-	16f-	16a-
.	16d-	16e-	16g
.	16d-	16e-	16g
32A-	16d-	16e-	16g
32G	.	.	.
32F	16d-	16e-	16g
32E-	.	.	.
8E-	16d-	16e-	8a-
.	16d-	16e-	.
16A-	16c	16e-	8r
16r	16c	16e-	.
8BB-	16.f	16.a-	32ff
.	.	.	32gg
.	.	.	32aa-
.	32e-	32g	32aa
8r	16d	16f	16bb-
.	32r	32r	16r
.	32d	32f	.
=42	=42	=42	=42
8EE-	16.g	16.b-	32b-
.	.	.	32cc
.	.	.	32dd-
.	32f	32a-	32dd
8r	16e-	16g	16ee-
.	32r	32r	2r
.	32e-	32g	.
16AA-	16e-	16cc	.
16r	16r	16r	.
16BB-	16d	16a-	.
16r	16r	16r	.
8C	8e-	8g	.
8r	4r	8r	.
.	.	.	16r
32F	.	16.ff	16.aa-
32G	.	.	.
32A-	.	.	.
32A	.	32ee-	32gg
16B-	32b-	16dd	16ff
.	32a	.	.
16r	32b-	32r	32r
.	32a-	32dd	32ff
=43	=43	=43	=43
32G	16g	16.gg	16.bb-
32A-	.	.	.
32B-	16r	.	.
32B	.	32ff	32aa-
16c	32cc	16ee-	16gg
.	32b	.	.
16r	32cc	32r	32r
.	32b-	32ee-	32gg
16A-	16a-	16ee-	16ccc
16r	16r	16r	16r
16B-	16f	16a-	16dd
16r	16.r	16.r	16r
16E-	.	.	4ee-
.	32e-	32g	.
16E-	32g	32b-	.
.	32e-	32g	.
16E-	32g	32b-	.
.	32e-	32g	.
16E-	32g	32b-	.
.	32e-	32g	.
16C	32r	32r	4ee
.	32B-	32g	.
16C	32g	32b-	.
.	32B-	32g	.
16C	32g	32b-	.
.	32B-	32g	.
16C	32g	32b-	.
.	32B-	32g	.
=44	=44	=44	=44
16AA-	32r	32r	16ff
.	32c	32a-	.
16AA-	32f	32cc	16aa-
.	32c	32a-	.
16AA-	32f	32cc	8.ccc
.	32c	32a-	.
16AA-	32f	32cc	.
.	32c	32a-	.
16BB-	32r	32r	.
.	32d	32f	.
16BB-	32f	32a-	32bb-
.	32d	32f	32aa-
16BB-	32f	32a-	32gg
.	32d	32f	32ff
16BB	32f	32a-	32ee-
.	32A-	32f	32dd
16C	32r	32r	8ee-
.	32G	32e-	.
16C	32e-	32g	.
.	32G	32e-	.
16C	32e-	32g	4e-
.	32G	32e-	.
16C	32e-	32g	.
.	32G	32e-	.
16BB-	32r	32r	.
.	32G	32B-	.
16BB-	32B-	32d-	.
.	32G	32B-	.
16BB-	32B-	32d-	8e
.	32G	32B-	.
16BB-	32B-	32d-	.
.	32G	32B-	.
=45	=45	=45	=45
16AA-	32r	32r	24f
.	32A-	32c	.
.	.	.	24a-
16AA-	32c	32f	.
.	.	.	24cc
.	32A-	32c	.
16AA-	32c	32f	8.cc
.	32A-	32c	.
16AA-	32c	32f	.
.	32A-	32c	.
16BB-	32r	32r	.
.	32F	32d	.
16BB-	32A-	32f	32b-
.	32F	32d	32a-
16BB-	32D	32B-	32g
.	32F	32A-	32f
16BB-	32A-	32B-	32e-
.	32F	32A-	32d
16EE-	32E-	32G	16e-
.	32G	32e-	.
16r	32B-	32g	16r
.	32G	32e-	.
16BB-	16A-	16d	32f
.	.	.	32a-
16r	16r	16r	32g
.	.	.	32f
16E-	32G	32e-	16e-
.	32B-	32g	.
16r	32e-	32b-	16r
.	32g	32ee-	.
16B-	16a-	16dd	32ff
.	.	.	32aa-
16r	16r	16r	32gg
.	.	.	32ff
=46	=46	=46	=46
8E-	32G	32e-	16ee-
.	32F	32d	.
.	32A-	32f	16r
.	32G	32e-	.
8r	16B-	16g	32ee-
.	.	.	32dd
.	16r	16r	32ff
.	.	.	32ee-
8E-	32e-	32g	16gg
.	32d	32f	.
.	32f	32a-	16r
.	32e-	32g	.
8r	16g	16b-	32gg
.	.	.	32ff
.	16r	16r	32aa-
.	.	.	32gg
8E-	32g	32b-	16bb-
.	32f	32a-	.
.	32a-	32cc	16r
.	32g	32b-	.
4.r	16b-	16dd-	32bb-
.	.	.	32aa-
.	4r	4r	32ccc
.	.	.	32bb-
.	.	.	8ddd-
.	.	.	8r
.	16r	16r	.
=47	=47	=47	=47
8r	8r	8r	4.cc
8BB-	8G	8e	.
4AA-	4A-	4f	.
.	.	.	8cc-
8r	8r	8r	[6..b-
8AA-	8F	8d	.
4GG	8G	8e-	.
.	.	.	48b-]
.	.	.	16a
.	8E-	8B-	16a-
.	.	.	16g
=48	=48	=48	=48
8AA-	8C	8c	8f
8r	8r	8r	4a-
8BB-	8F	8A-	.
8r	8r	8r	8d
4C	4E-	4G	8e-
.	.	.	16r
.	.	.	16gg
4r	4r	4r	16aa-
.	.	.	16aa
.	.	.	16bb-
.	.	.	16bb
=49	=49	=49	=49
2r	16r	16r	[6..ccc
.	16c	16e	.
.	16d	16f	.
.	16e	16g	.
.	8f	8a-	.
.	.	.	48ccc]
.	.	.	16gg
.	8.r	8.r	16aa-
.	.	.	16aa
16r	.	.	[6..bb-
16B-	16d	16b-	.
16A	16e-	16cc	.
16A-	16f	16dd	.
4G	8g	8ee-	.
.	.	.	48bb-]
.	.	.	16aa
.	8e-	8b-	16aa-
.	.	.	16gg
=50	=50	=50	=50
8A-	8c	8cc	8ff
8r	8r	8r	4aa-
8B-	8f	8a-	.
8r	8r	8r	8dd
4E-	16e-	8g	8ee-
.	16B-	.	.
.	16e-	16r	16r
.	16g	16b-	16ee-
8r	[4b-	16ee-	16gg
.	.	16gg	16bb-
8B-	.	16ff	16aa-
.	.	16dd	16ff
=51	=51	=51	=51
4e-	16b-]	8ee-	8ee-
.	16b-	.	.
.	16g	16r	16r
.	16e-	16G	16e-
8r	8.B-	16e-	16g
.	.	16g	16b-
8BB-	.	16f	16a-
.	16A-	16d	16f
4E-	4G	4e-	8e-
.	.	.	16r
.	.	.	16G
4r	4r	4r	16B-
.	.	.	16e-
.	.	.	16g
.	.	.	16b-
=52	=52	=52	=52
4CC	4E-	4G	4ee-
4DD	4F	4B-	4b-
8EE-	8B-	16.e-	16.g
.	.	32f	32a-
8E-	8e-	8g	8b-
4r	4r	4r	4r
=53	=53	=53	=53
8BB-	8A-	8d	8f
8BB-	8A-	8d	8f
8BB-	8A-	8d	8f
8BB-	8A-	8d	8b-
8E-	8G	8e-	8e-
4.r	4.r	4.r	4.r
==	==	==	==
*-	*-	*-	*-
!!!RWG1: This file contains only pitch and duration data.
!!!RWG2: Transposing instruments are not transposed.
!!!RWG3: Spines may have incompatible meters.
!!!RWG4: Durations of rests and tied notes may be interpreted.
!!!RWG: Key is interpreted using the Humdrum key tool.
!!!OPT: Hunt
!!!AFT: stage1
!!!END: 1997/04/15
!!!KEY: 1401700869
!!!EMD: Converted from MuseData to Humdrum Dec 16, 2000, by Andreas Kornstaedt using muse2kern.
!!!EMD: Manual editing by Craig Sapp, Nov 2001
